X:28
T:ROCKY ROAD TO DUBLIN -- JIG.
R:jig
B:Coles pg. 64.8
Z:John B. Walsh, <walsh:mat:h.ubc.ca> 5/19/02
M:9/8
L:1/8
K:EDor
"4"ve2d BcB A3|"4"e2c A2c Bcd|"4"e2d BcB A3|dBG G2A Bcd:|
|:ve2a a2fg3|e2a a2A Bcd|e2a a2f g3|dBG G2A Bcd:|
